X:1
T:Andante
T:BWV 1033: Flute Sonata
T:Johann Sebastian Bach Transcription by: Enno Voorhorst 
%%score ( 1 2 )
L:1/8
Q:1/4=47
M:4/4
K:C
V:1 treble-8 nm="Classical Guitar" snm="Guit."
V:2 treble-8 
V:1
"^Andante" !0!e/!3!c/!0!B/c/ d/!3!G/!2!B/!1!d/ f/!2!d/!4!c/d/ e/A/c/e/ | %1
 !3!a/!4!f/!0!e/!4!f/ !3!d/!4!c'/!-4!b/!2!f/ !4!e/g/e/B/ !3!c/!0!e/!1!d/!3!c/ | %2
 !2!f/c/f/!4!g/ !1!a/!2!f/!0!e/!2!g/"CVI" !2!d/^c/d/f/ _b/g/f/e/ | %3
 !2!d/^c/B/A/ !1!f/!2!c/d/!1!^G/ !-1!A/c/d/g/ Te>d | %4
 d/e/f/A/ _B/d/G/f/ !0!e/!4!B/!1!c/G/ A/c/F/A/ | %5
 !4!d/!0!e/!2!f/A/ !3!G/_B/!4!f/!0!e/ f/c/A/c/ F/c/d/e/ | %6
 !2!f/!1!a/!3!d/!-3!c/ B/d/e/f/ !1!g/!2!d/!0!e/B/ !1!c/!0!e/!2!f/!4!g/ | %7
 !1!a/!4!c'/f/e/ !2!f/!1!a/!4!d'/!1!f/ !3!e/!4!d'/!2!c'/!1!_b/ !1!a/!4!g/!2!f/!1!a/ | %8
"CIII" g/f/e/d/ !4!e/!1!g/B/d/ !1!c/!2!A/c/!0!e/ !1!a/!2!b/!4!c'- | %9
[Q:1/4=40] c'/b/4a/4!1!g/!4!f/[Q:1/4=38] eTd/!fermata!c/[Q:1/4=110]"^Presto" ce/d/ ec | %10
 !2!A!1!f!4!Bf !0!ec/B/ cG | EgFa g!3!e/d/ e!2!c | !3!A!4!c'!2!f!1!a df/e/ fd | %13
 !3!B!4!d'!2!g!1!b !3!e(!2!g/!1!f/) !2!g!0!e | c/c'/g/c'/ (e'/c'/)g/c'/ c/g/e/g/ c'/g/e/g/ | %15
 !3!_B/e/c/e/ (g/e/)c/e/ !3!A(f/e/) f!4!c' | AfFd G!1!e/!3!d/ e!4!c' | %17
 Ge!3!Ec"CIII" Fd/!3!c/ !1!db | Fd!0!D!0!B !3!E/!0!G/!4!A/!0!B/ (c/B/)A/G/ | %19
 !0!e/!1!d/!3!c/!0!B/ !1!g/!4!f/!0!e/!1!d/ e/!3!c/!1!d/!0!e/ !4!f/!3!e/!1!d/!3!c/ | %20
 !1!a/(!4!g/!2!f/)!0!e/ !4!c'/!2!_b/!1!a/g/ !1!a/(!4!g/!2!f/)!0!e/ !2!f/!0!e/!2!d/!4!c/ | %21
 !0!B/!1!f/!2!d/f/ (!1!a/f/)d/f/ !1!g/!4!f/!0!e/!1!d/ !0!e/!1!d/!3!c/B/ | %22
 A/e/c/e/ g/e/c/e/ (f/e/)!2!d/!4!c/ d/c/B/!1!A/ | %23
 !3!G/!1!d/!2!B/d/ (!4!f/d/)B/d/ !0!e(!1!c/B/) ce | %24
[Q:1/4=105] Ac'[Q:1/4=100]Ge'"CVII"[Q:1/4=85] [C^FA^f]2[Q:1/4=90] [GBg]d | %25
[Q:1/4=85] [Gc]B[Q:1/4=80][D^Fc]d[Q:1/4=60] !fermata![DGB]4 |] %26
V:2
 !1!C2 !1!G,2 !1!D2 !1!A,2 | !1!F2 G2 !1!C2 z2 | !3!A2 !3!F2 !1!_B,2 G,2 | A,2 D2 A2 A,2 | %4
 D2 G,2 C2 F,2 | _B,2 C2 F,2 F2 | D2 G,2 E,2 A,2 | !3!F2 D2 A,2 !3!F2 | C2 G,2 A,2 !3!F2 | %9
 G2 !2!G,2 x4 | x8 | x8 | x8 | x8 | x8 | x8 | x8 | x8 | x8 | x8 | x8 | x8 | x8 | x8 | z6 B,2 | %25
 A,4 G,4 |] %26

